X:1
T:I Know My Savior Cares for Me
T:I Know My Savior Cares for Me
T:George Thomas Speer
T:Kathryn Bacon, 1919
T:Public Domain Courtesy of the Cyber Hymnal™
T:Public Domain Courtesy of the Cyber Hymnal™
C:George Thomas Speer
Z:Public Domain
Z:Courtesy of the Cyber Hymnal™
%%score ( 1 2 ) ( 3 4 )
L:1/8
Q:1/4=86
M:4/4
K:Bb
V:1 treble 
V:2 treble 
V:3 bass 
V:4 bass 
V:1
 FGB | (z [DB])[DB][DB] [Ec] x3 | d4- [Fd][Fd][Fd][Ec] | [DB]6 [=EB]2 | c4- [Fc]FFG | %5
w: 1.~When I am|* far from friends|* and home, Up- on|* the|land, or sea, My Sav-|
w: 2.~Up- on the|* cross, in won-|* drous love, He died,|* from|sin to free, And now|
w: 3.~The dark- est|* clouds may o’er|* me roll, Un- daunt-|* ed|I shall be; My faith-|
w: 4.~I’ll sing His|* praise with heart|* and voice, Now, and|* e-|ter- nal- ly; And in|
 z [DB][DF][DG] [DB] x3 | d4- [Fd][Fd][Ff][Fd] | B6 c2 | B6 ||"^Refrain" [DF]2 | %10
w: * ior’s near, what-|* e’er may come, I|* know|He|cares|
w: * pre- pares my|* home a- bove, I|* know|He|cares|
w: * ful friend will|* keep my soul, I|* know|He|cares|
w: * His strength and|* love re- joice, I|* know|He|cares|
 [DF][DF][DF][EG] [FB][FB][FB][FB] | [FB][FB][FB][Bd] [Bd][Bd][Bd][Fd] | %12
w: for me. * * * * * *||
w: for me. * * * * * *||
w: for me. * * * * * *||
w: for me. * * * * * *||
 [Fd][Fc][FB][FB] [=EB]2 [EG]2 | c6 [DF]2 | [DF][DF][DF][EG] [FB][FB][FB][FB] | %15
w: |||
w: |||
w: |||
w: |||
 [FB][FB][FB][Bd] [Bd][Bd][Bd][Bd] | [Af][Bd][Ac][GB] [Bd]2 [Fc]2 | B4- !fermata![FB] |] %18
w: |||
w: |||
w: |||
w: |||
V:2
 x3 | B4- D D D x | F F F G x4 | x8 | F A A G x4 | B4- D D D x | F F F F x4 | (GGGG F2) x2 | %8
 (FF=EE F2) || x2 | x8 | x8 | x8 | (FF=EE F2) x2 | x8 | x8 | x8 | F F =E E x |] %18
V:3
 z3 | z ([B,,F,][B,,F,][B,,F,] [B,,F,])[B,,F,][B,,F,][B,,F,] | %2
w: ||
 ([B,,B,][B,,B,][B,,B,][B,,B,] [B,,B,]) z3 | z ([G,B,][G,B,][G,B,] [G,B,]2) [C,G,]2 | %4
w: ||
 ([F,A,][F,C][F,C][F,B,] [F,A,]) z3 | z ([B,,F,][B,,F,][B,,F,] [B,,F,])[B,,B,][B,,B,][B,,F,] | %6
w: ||
 ([B,,B,] [B,,B,] [D,B,] [F,B,] B,)B,[B,D]B, | ([G,D][G,D][E,E][E,E] [F,D]2) [F,E]2 | (DD^CC D2) || %9
w: * * * * * He * watch-|||
 [B,,B,]2 | [B,,B,][B,,B,][B,,B,][B,,B,] [B,,D][B,,D][B,,D][B,D] | %11
w: es|o’er me day and night, He makes my|
 [B,D][B,D][B,D][B,F] [B,F][B,F][B,F][B,,B,] | [B,,B,][C,A,][D,B,][D,B,] [C,C]2 [C,B,]2 | %13
w: ma- ny bur- dens light, I know my|Sav- ior cares for me. When-|
 ([F,A,][F,A,][C,G,][C,G,] [F,A,]2) [B,,B,]2 | %14
w: e’er * * * * I|
 [B,,B,][B,,B,][B,,B,][B,,B,] [B,,D][B,,D][B,,D][B,D] | %15
w: call, He hears my cry, And whol- ly|
 [B,D][B,D][B,D][B,F] [B,F][B,F][B,F][G,B,] | [F,C][F,D][F,E][G,D] [F,F]2 [F,E]2 | %17
w: on Him I re- ly— I know my|Sav- ior cares for me! *|
 (DD^CC !fermata![B,,D]) |] %18
w: |
V:4
 x3 | x8 | x8 | x8 | x8 | x8 | x4 B,B,B, x | x8 | B,,6 || x2 | x8 | x8 | x8 | x8 | x8 | x8 | x8 | %17
 B,,4- x |] %18

